markets/BAL.svg

<svg width="42" height="42" viewBox="0 0 42 42" fill="none" xmlns="http://www.w3.org/2000/svg">
<circle cx="21" cy="21" r="21" fill="black"/>
<g clip-path="url(#clip0_7698_9714)">
<path fill-rule="evenodd" clip-rule="evenodd" d="M21 0C32.5962 0 42 9.4038 42 21C42 32.5962 32.5962 42 21 42C9.4038 42 0 32.5962 0 21C0 9.4038 9.4038 0 21 0Z" fill="#1E1E1E"/>
<path d="M21.315 29.778C14.5992 29.778 9.15601 27.8376 9.15601 25.2378C9.15601 23.8812 10.6386 22.659 13.0116 21.798C14.8638 22.9866 17.9718 23.5956 21.4956 23.5956C24.9354 23.5956 27.9762 22.8522 29.8452 21.714C32.0838 22.5666 33.474 23.7552 33.474 25.0656C33.474 27.6696 28.0308 29.778 21.315 29.778Z" fill="white"/>
<path d="M21.3865 23.0118C16.2961 23.0118 12.1675 21.4158 12.1675 19.446C12.1675 18.354 13.4401 17.3754 15.4351 16.7244C16.8589 17.4678 18.9925 17.9424 21.3865 17.9424C23.7805 17.9424 25.9141 17.4678 27.3379 16.7244C29.3371 17.3796 30.6055 18.354 30.6055 19.446C30.6097 21.4158 26.4811 23.0118 21.3865 23.0118Z" fill="white"/>
<path d="M21.3527 17.3502C17.4173 17.3502 14.2253 16.0314 14.2253 14.4102C14.2253 12.789 17.4173 11.4702 21.3527 11.4702C25.2881 11.4702 28.4801 12.789 28.4801 14.4102C28.4801 16.0314 25.2881 17.3502 21.3527 17.3502Z" fill="white"/>
</g>
<defs>
<clipPath id="clip0_7698_9714">
<rect width="42" height="42" fill="white"/>
</clipPath>
</defs>
</svg>

<svg width="42" height="42" viewBox="0 0 42 42" fill="none" xmlns="http://www.w3.org/2000/svg"><circle cx="21" cy="21" r="21" fill="#000"/><g clip-path="url(#clip0_7698_9714)"><path fill-rule="evenodd" clip-rule="evenodd" d="M21 0c11.596 0 21 9.404 21 21s-9.404 21-21 21S0 32.596 0 21 9.404 0 21 0z" fill="#1E1E1E"/><path d="M21.315 29.778c-6.716 0-12.159-1.94-12.159-4.54 0-1.357 1.483-2.579 3.856-3.44 1.852 1.189 4.96 1.798 8.484 1.798 3.44 0 6.48-.744 8.35-1.882 2.238.853 3.628 2.041 3.628 3.352 0 2.604-5.443 4.712-12.159 4.712z" fill="#fff"/><path d="M21.387 23.012c-5.09 0-9.22-1.596-9.22-3.566 0-1.092 1.273-2.07 3.268-2.722 1.424.744 3.557 1.218 5.952 1.218 2.393 0 4.527-.474 5.95-1.218 2 .656 3.268 1.63 3.268 2.722.005 1.97-4.124 3.566-9.218 3.566z" fill="#fff"/><path d="M21.353 17.35c-3.936 0-7.128-1.319-7.128-2.94s3.192-2.94 7.128-2.94c3.935 0 7.127 1.319 7.127 2.94s-3.192 2.94-7.127 2.94z" fill="#fff"/></g><defs><clipPath id="clip0_7698_9714"><path fill="#fff" d="M0 0h42v42H0z"/></clipPath></defs></svg>
